X: 15241
T: Girl I Left Behind Me, The
R: polka
M: 2/4
K: Gmajor
|:g/f/|:ed/c/ BA|BG E>F|GG G/A/B/c/|d2 B g/f/|
ed/c/ BA|BG EG|FA DE/F/|G2 G:|
|:d/c/|Bd ef|gd B>G|Bd ef|g a/g/f g/f/|
ed/c/ BA|BG EG|FA DE/F/|1 G2 G:|2 G4||

